X: 1677
T: Sarı Mimozamsın Sen Benim
C: Alâeddin Yavaşca
O: Turkey
F: http://compmusic.upf.edu/node/140
N: hicazkar--sarki--semai--sari_mimozamsin--alaeddin_yavasca
N: makam= hicazkar
N: form= sarki
N: usul= semai = 3/4
M: 3/4
L: 1/16
K: C _1/4B _7/8e _7/8A ^f
Q: 1/4=120
%%MIDI tuningsystem comma53
d6e2 f2g2  | e6f2 g2a2  | g2g2 f2f2 e2e2  | \
w:  ARANAĞME  |   |   | 
d2c2 B2A2 G4  | B4 c4 _2/4d4  | 
w:   |   | 
c4 B4 c4  | B4 A4 B4  | G12  | G4 g4 f4  | \
w:   |   |   |   | 
e4 d4 c4  | .d4 z4 B4  | G12  | d6e2 f2g2  | 
w:   |   |   |  ARANAĞME  | 
e6f2 g2a2  | g2g2 f2f2 e2e2  | d2c2 B2A2 G4  | \
w:   |   |   | 
B4 c4 _2/4d4  | c4 B4 c4  | 
w:   |   | 
B4 A4 B4  | G12  | G4 g4 f4  | e4 d4 c4  | \
w:   |   |   |   | 
.d4 z4 B4  | G12  | f4 g4 a4  | g4 f4 g4  | \
w:   |   |  Sa rı  mi  |  mo zam sın   | 
e8 f4  | 
w:  sen  be  | 
g12  | .a4 z2g2 f2g2  | .a4 z2g2 f2g2  | \
w:  nim    |  SAZ  |   | 
a4 g4 f4  | e4 d4 c4  | B8 c4  | d12  | G2A2 B2c2 d2e2  | 
w:  Ha yat  bah  |  çe sin de   |  gül şe  |  nim    |  SAZ  | 
=f2e2 d2c2 d4  | g4 =f4 e4  | d4 c4 B4  | \
w:   |  Öm rü mün   |  bo yun ca   | 
{B}c8 d4  | B12  | .G2.A2 .B2.B2 .d2.d2  | B12  | 
w:  *  ben de  |  nim    |  SAZ  |   | 
G4 A4 B4  | c4 B4 A4  | G8 F4  | G12  | G4 A4 B4  | \
w:  Be nim sin   |  sev di ğim   |  sen  be  |  nim    |  SAZ  | 
G4 f4 g4  | f4 g4 a4  | g4 f4 g4  | 
w:  SAZ  |  Sa rı  mi  |  mo zam sın   | 
e8 f4  | g12  | .a4 z2g2 f2g2  | .a4 z2g2 f2g2  | \
w:  sen  be  |  nim    |  SAZ  |   | 
a4 g4 f4  | e4 d4 c4  | B8 c4  | 
w:  Ha yat  bah  |  çe sin de   |  gül şe  | 
d12  | G2A2 B2c2 d2e2  | =f2e2 d2c2 d4  | \
w:  nim    |  SAZ  |   | 
g4 =f4 e4  | d4 c4 B4  | {B}c8 d4  | B12  | 
w:  Öm rü mün   |  bo yun ca   |  *  ben de  |  nim    | 
.G2.A2 .B2.B2 .d2.d2  | B12  | G4 A4 B4  | \
w:  SAZ  |   |  Be nim sin   | 
c4 B4 A4  | G8 F4  | G12  | G4 A4 B4  | G12  | d12  | 
w:  sev di ğim   |  sen  be  |  nim    |  SAZ  |  SAZ  |  SAZ  | 
G12  | g12  | f12  | g4 f4 e4  | d4 e4 f4  | g2c'2 b2a2 g2f2  | \
w:   |   |   |   |   |   | 
e2d2 e2f2 g4  | a2g2 f2a2 g4  | 
w:   |   | 
d2c2 d2B2 G4  | G4 a4 b4  | c'12  | c'4 b4 c'4  | \
w:   |   |   |  Neş e ler   | 
b4 a4 g4  | a8 b4  | c'12  | c'8 z4  | c'2b2 a2g2 a2b2  | 
w:  sa çar sın   |  her  yer  |  de    |   |  SAZ  | 
c'2d'6 b4  | c'2{d'}c'2 b2a2 g4  | a8 b4  | g12  | g12  | \
w:  De va sın   |  bi *  *  li *  rim   |  her  der  |  de    |   | 
g2g2 e2e2 c4  | c4 d4 e4  | =f4 e4 d4  | 
w:  SAZ  |  Bir  ben ze  |  rin  yok tur   | 
c4 B4 c2d2  | d12  | g2g2 f2e2 d2c2  | B2c2 B2A2 G4  | \
w:  şu  *  yer  |  de    |  SAZ  |   | 
B4 c4 _2/4d4  | c4 B4 A4  | 
w:  Be nim sin   |  sev di ğim   | 
G8 F4  | G12  | G2G2 E2E2 F4  | G12  | G4 A4 B4  | \
w:  sen  be  |  nim    |  SAZ  |   |  Be nim sin   | 
c4 B4 A4  | G8 F4  | G12  | D4 E4 F4  | 
w:  sev di ğim   |  sen  be  |  nim    |  SAZ  | 
G12  | |


